material/.icons/material/format-text-rotation-angle-up.svg

<svg xmlns="http://www.w3.org/2000/svg" viewBox="0 0 24 24"><path d="M20.58 9.33v4.22l-1.41-1.41L10.31 21l-1.4-1.41 8.81-8.86-1.41-1.4M7.59 11l2.63-2.61-4.88-2.25M4.5 4.22l11.11 4.41-1.45 1.5-2.2-.94-3.57 3.56.94 2.16-1.5 1.5L3.42 5.25z"/></svg>

<?xml version="1.0" encoding="UTF-8"?><!DOCTYPE svg PUBLIC "-//W3C//DTD SVG 1.1//EN" "http://www.w3.org/Graphics/SVG/1.1/DTD/svg11.dtd"><svg xmlns="http://www.w3.org/2000/svg" xmlns:xlink="http://www.w3.org/1999/xlink" version="1.1" id="mdi-format-text-rotation-angle-up" width="24" height="24" viewBox="0 0 24 24"><path d="M20.58 9.33V13.55L19.17 12.14L10.31 21L8.91 19.59L17.72 10.73L16.31 9.33M7.59 11L10.22 8.39L5.34 6.14M4.5 4.22L15.61 8.63L14.16 10.13L11.96 9.19L8.39 12.75L9.33 14.91L7.83 16.41L3.42 5.25Z" /></svg>
